img/footer/twitter.svg

<svg width="18" height="16" viewBox="0 0 18 16" fill="none" xmlns="http://www.w3.org/2000/svg">
<path d="M16.1367 4.59375C16.8398 4.06641 17.4727 3.43359 17.9648 2.69531C17.332 2.97656 16.5938 3.1875 15.8555 3.25781C16.6289 2.80078 17.1914 2.09766 17.4727 1.21875C16.7695 1.64062 15.9609 1.95703 15.1523 2.13281C14.4492 1.39453 13.5 0.972656 12.4453 0.972656C10.4062 0.972656 8.75391 2.625 8.75391 4.66406C8.75391 4.94531 8.78906 5.22656 8.85938 5.50781C5.80078 5.33203 3.05859 3.85547 1.23047 1.64062C0.914062 2.16797 0.738281 2.80078 0.738281 3.50391C0.738281 4.76953 1.37109 5.89453 2.39062 6.5625C1.79297 6.52734 1.19531 6.38672 0.703125 6.10547V6.14062C0.703125 7.93359 1.96875 9.41016 3.65625 9.76172C3.375 9.83203 3.02344 9.90234 2.70703 9.90234C2.46094 9.90234 2.25 9.86719 2.00391 9.83203C2.46094 11.3086 3.83203 12.3633 5.44922 12.3984C4.18359 13.3828 2.60156 13.9805 0.878906 13.9805C0.5625 13.9805 0.28125 13.9453 0 13.9102C1.61719 14.9648 3.55078 15.5625 5.66016 15.5625C12.4453 15.5625 16.1367 9.97266 16.1367 5.08594C16.1367 4.91016 16.1367 4.76953 16.1367 4.59375Z" fill="#5A7184"/>
</svg>

<svg width="18" height="16" fill="none" xmlns="http://www.w3.org/2000/svg"><path d="M16.137 4.594a7.818 7.818 0 0 0 1.828-1.899 6.918 6.918 0 0 1-2.11.563 3.607 3.607 0 0 0 1.618-2.04 7.798 7.798 0 0 1-2.32.915 3.691 3.691 0 0 0-2.708-1.16 3.69 3.69 0 0 0-3.691 3.691c0 .281.035.563.105.844A10.71 10.71 0 0 1 1.23 1.64a3.59 3.59 0 0 0-.492 1.863c0 1.266.633 2.39 1.653 3.058-.598-.035-1.196-.175-1.688-.457v.036a3.696 3.696 0 0 0 2.953 3.62c-.281.071-.633.141-.949.141-.246 0-.457-.035-.703-.07.457 1.477 1.828 2.531 3.445 2.566A7.422 7.422 0 0 1 .88 13.98c-.317 0-.598-.035-.879-.07 1.617 1.055 3.55 1.652 5.66 1.652 6.785 0 10.477-5.59 10.477-10.476v-.492z" fill="#5A7184"/></svg>
